logos/pyscript.svg

<?xml version="1.0" encoding="UTF-8"?>
<svg width="512px" height="173px" viewBox="0 0 512 173" version="1.1" xmlns="http://www.w3.org/2000/svg" preserveAspectRatio="xMidYMid">
    <title>PyScript</title>
    <g>
        <path d="M170.139104,16.1474186 C183.109243,3.18149996 204.392194,-5.77124604 221.576507,4.39647781 C225.353067,6.63097137 228.876662,9.46029234 231.819145,12.7182583 C240.893758,22.7651702 243.671905,36.7582542 243.734421,49.9114577 C243.85919,76.1329271 234.379145,106.003814 209.178774,118.693026 C199.544152,123.544496 188.781074,125.284927 178.05255,124.815132 C172.011089,124.550391 165.935151,123.324507 159.890639,123.246606 L159.32406,123.24273 L159.32406,169.668284 L139.276662,169.668284 L139.276662,3.22212232 L159.32406,3.22212232 L159.32406,29.8640595 L159.587841,29.8640595 C161.778811,24.7862645 166.275495,20.0099719 170.139104,16.1474186 Z M171.570118,36.4585984 C169.863621,38.4340396 168.268799,40.4811258 166.708143,42.5702892 L165.674683,43.9558528 C163.42791,46.9566271 160.797036,50.4470466 159.579664,53.8681811 C158.66909,56.4268621 159.32406,60.1372135 159.32406,62.836754 L159.32406,105.305584 L160.169036,105.478789 C173.972875,108.287369 187.891982,110.036037 200.473982,102.025197 C217.753257,91.0233959 223.184783,69.4442182 221.863765,50.1752393 L221.823887,49.6164094 C221.146061,40.4866658 219.146398,31.2676517 212.340196,24.5987158 C198.902372,11.4320595 181.026951,25.5114 171.570118,36.4585984 Z M261.671303,3.22212232 C262.523318,6.18307029 264.266914,8.87522485 265.546255,11.6631321 C268.679979,18.489535 272.04847,25.212008 275.319361,31.9743119 C284.533251,51.0182851 293.728676,70.0854711 302.763194,89.2149095 C305.56983,95.1577761 308.481484,101.051567 311.314374,106.981988 L312.523112,109.526089 C313.762885,112.152035 316.173849,115.332977 316.577434,118.230881 C316.773352,119.628341 315.64413,121.346254 315.110144,122.626563 L315.073879,122.715167 C313.496466,126.652107 311.649995,130.415742 309.468521,134.057774 L308.608123,135.496882 C306.647628,138.769801 304.595529,142.088651 302.006141,144.872818 L301.614233,145.29268 C299.581264,147.460147 297.417941,149.588824 294.907779,151.189331 C283.860608,158.235728 271.581577,156.597117 259.561051,153.841391 L259.561051,171.514755 L260.40344,171.622461 C274.166192,173.363774 288.103745,174.185839 300.974755,167.750592 C314.082061,161.197203 321.974405,148.238934 328.47662,135.640463 C340.35866,112.61722 349.263931,87.9333613 359.25522,64.0313805 L359.645049,63.1005355 C365.136981,50.0156514 370.510211,36.881704 375.999505,23.7970837 C377.806409,19.4932238 379.560556,15.1658874 381.388563,10.8717874 C382.425224,8.43866637 383.87866,5.83619754 384.329727,3.22212232 L370.085523,3.22212232 C368.653189,3.22212232 365.888758,2.69429543 364.648985,3.49328976 C363.161257,4.45319085 362.512354,7.97309193 361.834436,9.55287967 C359.470953,15.0485046 357.329047,20.6414649 355.047336,26.1711177 C348.742957,41.4506643 342.449129,56.7391795 336.268727,72.0691084 C333.54914,78.8111012 329.558125,85.8398245 327.880474,92.9078513 L327.352911,92.9078513 L323.462133,84.7306231 L316.60645,70.7502006 L295.237506,26.9624624 L286.928387,10.0804428 L283.396352,3.49328976 L277.498197,3.22212232 L261.671303,3.22212232 Z M0,64.6832248 C2.39809088,66.6702913 5.91828212,67.8393712 8.70479134,69.2326653 L80.4533745,105.106957 C87.6250675,108.692803 94.7523297,112.357413 101.913622,115.963304 L104.985059,117.50469 C108.531866,119.278093 112.681941,122.282038 116.591448,122.978949 L116.591448,110.053652 L116.32028,104.880896 L110.26069,101.547489 L94.9613601,93.8978235 L54.6027821,73.5866437 L36.9294178,64.6832248 L54.6027821,55.9132795 L94.6975786,35.9961893 L110.26069,28.2162161 L116.32028,24.9479626 L116.591448,19.8403603 L116.591448,6.65128255 C112.513121,7.37826452 108.158615,10.5388951 104.457496,12.3893227 L26.3781556,51.428993 C17.6293127,55.8035463 8.44607439,59.7536751 0,64.6832248 Z M395.672334,6.65128255 L395.672334,19.5765788 C395.672334,20.9590579 395.176425,23.5486015 395.944029,24.7493351 C396.901556,26.2497246 400.177723,27.1721687 401.73931,27.9524345 L416.774858,35.4686262 C430.066811,42.1146025 443.311283,48.8684654 456.605873,55.5160244 C462.525131,58.4751259 468.705533,62.8494155 475.070582,64.6832248 L475.070582,65.210788 C468.236002,67.1799173 461.390871,71.7222357 455.023184,74.9055515 L416.511077,94.1616051 C411.876435,96.4791898 407.286636,99.0283748 402.530654,101.08508 L402.347418,101.162652 C400.54203,101.913053 396.945549,103.047811 395.944029,104.617115 C395.176425,105.817848 395.672334,108.407128 395.672334,109.789871 L395.672334,122.978949 L410.180319,115.922001 L487.204534,77.4098936 L512,64.9470064 C509.346358,62.2664582 504.294941,60.7652774 500.921175,59.0786581 L404.904688,11.070415 C401.939784,9.58743505 398.861453,7.57003371 395.672334,6.65128255 Z" fill="#FDA703"></path>
    </g>
</svg>

<svg preserveAspectRatio="xMidYMid" viewBox="0 0 512 173" xmlns="http://www.w3.org/2000/svg">
  <path fill="#FDA703" d="M170.14 16.147c12.97-12.966 34.252-21.918 51.437-11.75 3.776 2.234 7.3 5.063 10.242 8.321 9.075 10.047 11.853 24.04 11.915 37.193.125 26.222-9.355 56.093-34.555 68.782-9.635 4.851-20.398 6.592-31.126 6.122-6.042-.265-12.118-1.49-18.162-1.568l-.567-.004v46.425h-20.047V3.222h20.047v26.642h.264c2.19-5.078 6.687-9.854 10.551-13.717Zm1.43 20.312c-1.706 1.975-3.301 4.022-4.862 6.111l-1.033 1.386c-2.247 3-4.878 6.491-6.095 9.912-.91 2.559-.256 6.27-.256 8.969v42.469l.845.173c13.804 2.808 27.723 4.557 40.305-3.454 17.28-11.002 22.71-32.58 21.39-51.85l-.04-.559c-.678-9.13-2.678-18.348-9.484-25.017-13.438-13.167-31.313.912-40.77 11.86Zm90.101-33.237c.852 2.961 2.596 5.653 3.875 8.441 3.134 6.827 6.502 13.549 9.773 20.311 9.214 19.044 18.41 38.111 27.444 57.24 2.807 5.944 5.718 11.838 8.551 17.768l1.21 2.544c1.239 2.626 3.65 5.807 4.053 8.705.196 1.397-.933 3.115-1.467 4.396l-.036.088a79.505 79.505 0 0 1-5.605 11.343l-.86 1.439c-1.961 3.273-4.013 6.592-6.603 9.376l-.392.42c-2.033 2.167-4.196 4.296-6.706 5.896-11.047 7.047-23.326 5.408-35.347 2.652v17.674l.842.107c13.763 1.742 27.7 2.564 40.572-3.871 13.107-6.554 21-19.512 27.502-32.11 11.882-23.024 20.787-47.708 30.778-71.61l.39-.93C365.137 50.016 370.51 36.88 376 23.797c1.806-4.304 3.56-8.631 5.389-12.925 1.036-2.433 2.49-5.036 2.94-7.65h-14.243c-1.433 0-4.197-.528-5.437.271-1.488.96-2.137 4.48-2.815 6.06-2.363 5.496-4.505 11.088-6.787 16.618-6.304 15.28-12.598 30.568-18.778 45.898-2.72 6.742-6.71 13.77-8.389 20.839h-.527l-3.89-8.177-6.857-13.98-21.368-43.789-8.31-16.882-3.532-6.587-5.898-.27h-15.827ZM0 64.683c2.398 1.987 5.918 3.156 8.705 4.55l71.748 35.874c7.172 3.586 14.3 7.25 21.46 10.856l3.072 1.542c3.547 1.773 7.697 4.777 11.606 5.474v-12.925l-.27-5.173-6.06-3.334-15.3-7.65-40.358-20.31-17.674-8.904 17.674-8.77 40.095-19.917 15.563-7.78 6.06-3.268.27-5.108V6.651c-4.078.727-8.432 3.888-12.134 5.738L26.378 51.43C17.63 55.804 8.446 59.754 0 64.683ZM395.672 6.651v12.926c0 1.382-.496 3.972.272 5.172.958 1.5 4.234 2.423 5.795 3.203l15.036 7.517c13.292 6.646 26.536 13.4 39.83 20.047 5.92 2.96 12.1 7.333 18.466 9.167v.528c-6.835 1.969-13.68 6.511-20.048 9.695l-38.512 19.256c-4.635 2.317-9.224 4.866-13.98 6.923l-.184.078c-1.805.75-5.401 1.885-6.403 3.454-.768 1.2-.272 3.79-.272 5.173v13.189l14.508-7.057 77.025-38.512L512 64.947c-2.654-2.68-7.705-4.182-11.079-5.868L404.905 11.07c-2.965-1.483-6.044-3.5-9.233-4.419Z"/>
</svg>
